!!!!SEGMENT: Ric2022-O_presul_egregie
!!!id: Ric2022
!!!AGN: Motet
!!!voices: 4
!!!COM: Jean Richafort
!!!OTL: O presul egregie
**kern	**kern	**kern	**kern
*part4	*part3	*part2	*part1
*staff4	*staff3	*staff2	*staff1
*I"Bassus	*I"Tenor	*I"Altus	*I"Superius
*I'B.	*I'T.	*I'A.	*I'S.
*clefF4	*clefGv2	*clefGv2	*clefG2
*k[b-]	*k[b-]	*k[b-]	*k[b-]
*M2/1	*M2/1	*M2/1	*M2/1
*met(C|)	*met(C|)	*met(C|)	*met(C|)
=1	=1	=1	=1
!!section: Prima pars: O presul egregie
!!!OMD: Prima pars: O presul egregie
0r	0r	1r	0g
.	.	[1g	.
=2	=2	=2	=2
0r	0r	1g]	1b-y
.	.	1f	1cc
=3	=3	=3	=3
0r	1r	1d	1dd
.	[1G	[1g	2.dd
.	.	.	4cc
=4	=4	=4	=4
0G	1G]	2g]	2ee
.	.	2f	1dd
.	1B-y	2d	.
.	.	2e	4cc
.	.	.	4b-y
=5	=5	=5	=5
1F	1c	0f	0a
1D	1d	.	.
=6	=6	=6	=6
1G	2.d	0r	0r
.	8cL	.	.
.	8dJ	.	.
[1G	2e	.	.
.	[2d	.	.
=7	=7	=7	=7
2G]	4d]	2r	0r
.	4c	.	.
2F	2A	1d	.
1G	1B-y	.	.
.	.	2G	.
=8	=8	=8	=8
0D	0A	2.d	2r
.	.	.	1a
.	.	4c	.
.	.	4d	.
.	.	4e	.
.	.	[2f	2d
=9	=9	=9	=9
2r	0r	4f]	1.a
.	.	4e	.
1d	.	4d	.
.	.	4c	.
.	.	2f	.
2G	.	[2e	2g
=10	=10	=10	=10
1B-y	0r	4e]	2f
.	.	4d	.
.	.	2d	4e
.	.	.	4d
2A	.	2c	2e
[2G	.	2r	2e
=11	=11	=11	=11
2G]	1d	4B-y	1d
.	.	4G	.
2F	.	2A	.
1E-X	1G	2B-y	2r
.	.	2c	2g
=12	=12	=12	=12
1D	1.d	1F	2f
.	.	.	2.b-y
1r	.	2r	.
.	.	.	4a
.	2c	2F	[2a
=13	=13	=13	=13
1d	2B-y	4G	4a]
.	.	4A	4g
.	4A	4B-y	1g
.	4G	4c	.
1D	2A	2d	.
.	2A	2d	2f#i
=14	=14	=14	=14
1.d	1G	4B-y	1g
.	.	4c	.
.	.	4d	.
.	.	4e	.
.	1r	4f	1r
.	.	4g	.
2c	.	2e	.
=15	=15	=15	=15
2B-y	0r	2d	1r
4A	.	1g	.
4G	.	.	.
2A	.	.	1a
2A	.	2f#i	.
=16	=16	=16	=16
1G	1d	2g	1d
.	.	1d	.
2r	1G	.	1dd
[2d	.	2G	.
=17	=17	=17	=17
2d]	1.d	2.B-y	2g
2G	.	.	2.b-y
.	.	4c	.
2B-y	.	4d	.
.	.	4e	4a
2F	2c	2f	[2a
=18	=18	=18	=18
2G	2B-y	2e	4a]
.	.	.	4g
2E	4A	2c	1g
.	4G	.	.
1D	2A	1d	.
.	2A	.	2f#i
=19	=19	=19	=19
0G	[0G	0d	1g
.	.	.	2r
.	.	.	2g
=20	=20	=20	=20
0r	0G]	2r	2g
.	.	2d	2g
.	.	2d	1b-y
.	.	2e	.
=21	=21	=21	=21
0r	1r	2f	1a
.	.	2d	.
.	2r	2e	2g
.	2G	[2g	[2b-y
=22	=22	=22	=22
0r	2G	2g]	2b-]
.	2A	4f	4a
.	.	4e	4g
.	1B-y	2d	2f
.	.	[2g	2g
=23	=23	=23	=23
1r	1A	2g]	1a
.	.	2f#i	.
2r	4G	1g	1d
.	4A	.	.
2G	4B-y	.	.
.	4c	.	.
=24	=24	=24	=24
2G	4d	2r	0r
.	4e	.	.
2A	2.f	2c	.
2.B-y	.	2d	.
.	4e	.	.
.	2d	[2f	.
4A	.	.	.
=25	=25	=25	=25
2A	2c	4f]	0r
.	.	4e	.
2B-y	2f	4d	.
.	.	4c	.
2.G	2e	2B-y	.
.	[2d	2G	.
4E	.	.	.
=26	=26	=26	=26
2F	4d]	2A	2r
.	4c	.	.
1G	4B-y	1B-y	2d
.	4A	.	.
.	4G	.	2d
.	4F	.	.
4F	[2f	4A	2d
4E	.	4G	.
=27	=27	=27	=27
4D	4f]	1A	1f
4E	4e	.	.
4F	1d	.	.
4G	.	.	.
1A	.	1r	1e
.	2c#i	.	.
=28	=28	=28	=28
1D	1d	2r	4d
.	.	.	4e
.	.	2d	4f
.	.	.	4g
1r	1r	2d	4a
.	.	.	4b-y
.	.	2e	[2cc
=29	=29	=29	=29
2r	0r	1.f	4cc]
.	.	.	4b-y
2D	.	.	4a
.	.	.	4g
2D	.	.	2f
2E	.	4e	[2b-y
.	.	4d	.
=30	=30	=30	=30
1F	1r	1c	2b-]
.	.	.	2a
2D	2r	1B-y	1b-y
[2E-i	2G	.	.
=31	=31	=31	=31
2E-]	2G	0r	0r
4D	2A	.	.
4C	.	.	.
4BB-y	2B-y	.	.
4C	.	.	.
4D	2B-y	.	.
4EnyX	.	.	.
=32	=32	=32	=32
4F	2A	0r	0r
4G	.	.	.
4A	4F	.	.
4B-y	4G	.	.
2c	4A	.	.
.	4B-y	.	.
2F	[2c	.	.
=33	=33	=33	=33
4E	4c]	0r	0r
4D	4B-y	.	.
4C	1B-y	.	.
4BB-y	.	.	.
1C	.	.	.
.	2A	.	.
=34	=34	=34	=34
1BB-y	1B-y	1r	1r
1B-y	1d	1f	1b-y
=35	=35	=35	=35
2B-y	2d	2f	2b-y
1G	1d	1g	1b-y
2B-y	2d	2g	2b-y
=36	=36	=36	=36
2A	2f	2.a	2cc
2A	2e	.	2cc
.	.	4g	.
2.d	4d	1f	[1dd
.	4c	.	.
.	4B-y	.	.
4c	4A	.	.
=37	=37	=37	=37
2B-y	4G	1r	2dd]
.	4F	.	.
2A	1f	.	2cc
1G	.	1B-y	2.b-y
.	2e	.	.
.	.	.	8aL
.	.	.	8gJ
=38	=38	=38	=38
1F	1f	2.c	4a
.	.	.	4b-y
.	.	.	2.cc
.	.	4d	.
1r	1r	2e	.
.	.	.	4b-y
.	.	[2f	2a
=39	=39	=39	=39
0r	0r	2f]	1g
.	.	2e	.
.	.	1f	1f
=40	=40	=40	=40
1G	1B-y	1d	1b-y
2G	2B-y	2d	2b-y
[2G	[2B-y	[2d	[2g
=41	=41	=41	=41
2G]	2B-]	2d]	2g]
2G	2B-y	2d	2b-y
2A	2c	2f	2.a
2A	2c	2e	.
.	.	.	4g
=42	=42	=42	=42
4D	1A	2.d	1f
4E	.	.	.
4F	.	.	.
4G	.	4B-y	.
2A	1r	2c	1r
[2B-y	.	2d	.
=43	=43	=43	=43
4B-]	0r	4G	0r
4A	.	4A	.
1G	.	4B-y	.
.	.	4G	.
.	.	1A	.
2F#i	.	.	.
=44	=44	=44	=44
1G	1r	1G	1r
1G	1B-y	1d	1b-y
=45	=45	=45	=45
2G	2B-y	2d	2b-y
1G	1B-y	1d	1g
2G	2B-y	2d	2b-y
=46	=46	=46	=46
2A	2c	2f	2a
2A	2c	2e	2a
1D	2.A	1d	2f
.	.	.	[2a
.	4B-y	.	.
=47	=47	=47	=47
1r	2c	0r	4a]
.	.	.	4g
.	1d	.	2f
2r	.	.	1e
2A	2c#i	.	.
=48	=48	=48	=48
2B-y	1d	2r	1d
2G	.	2d	.
2A	2r	2.f	1r
[2B-y	2d	.	.
.	.	4e	.
=49	=49	=49	=49
4B-]	1f	2d	1r
4A	.	.	.
2F	.	2c	.
2.G	2e	2.B-y	2r
.	[2d	.	2dd
8FL	.	8AL	.
8EJ	.	8GJ	.
=50	=50	=50	=50
1D	4d]	4F	1.ff
.	4c	4E	.
.	4B-y	2F	.
.	4A	.	.
2r	2B-y	2G	.
2A	2c	2A	2ee
=51	=51	=51	=51
2B-y	1d	2r	2.dd
2G	.	2d	.
.	.	.	8ccL
.	.	.	8b-yJ
2A	2r	2.f	2cc
[2B-y	2d	.	[2dd
.	.	4e	.
=52	=52	=52	=52
4B-]	2.f	2d	4dd]
4A	.	.	4cc
2F	.	2c	2a
.	4e	.	.
2.G	4d	2B-y	2b-y
.	4c	.	.
.	[2d	[2f	[2a
8FL	.	.	.
8EJ	.	.	.
=53	=53	=53	=53
2D	2d]	4f]	4a]
.	.	4e	4g
2.F	4c	2f	4f
.	4B-y	.	4e
.	2A	2.c	2f
4E	.	.	.
4C	[2c	.	[2e
4D	.	4B-y	.
=54	=54	=54	=54
1E	4c]	4G	4e]
.	4B-y	4A	4d
.	2G	4B-y	1g
.	.	4c	.
1D	1A	1d	.
.	.	.	2f#i
=55	=55	=55	=55
0Gl	0Gl	0dl	0gl
=56||	=56||	=56||	=56||
*M2/1	*M2/1	*M2/1	*M2/1
*met(C|)	*met(C|)	*met(C|)	*met(C|)
!!section: Secunda pars: O plebs, N.
!!!OMD: Secunda pars: O plebs, N.
0r	0r	1g	0r
.	.	2g	.
.	.	2g	.
=57	=57	=57	=57
1r	0r	2f	0r
.	.	2e	.
1G	.	2d	.
.	.	4G	.
.	.	4A	.
=58	=58	=58	=58
2G	0r	4B-y	0r
.	.	4c	.
2G	.	1d	.
2F	.	.	.
2E	.	2c#i	.
=59	=59	=59	=59
2D	0r	1d	1r
2.G	.	.	.
.	.	2r	1dd
4A	.	.	.
4B-y	.	4G	.
4c	.	4A	.
=60	=60	=60	=60
2d	0r	4B-y	2dd
.	.	4c	.
2D	.	2d	2dd
2F	.	2A	2cc
2G	.	4d	2b-y
.	.	4e	.
=61	=61	=61	=61
1D	1d	4f	2a
.	.	4g	.
.	.	2.a	4d
.	.	.	4e
1r	2d	.	4f
.	.	4g	4g
.	2d	2f	[2a
=62	=62	=62	=62
1r	2c	2e	4a]
.	.	.	4d
.	2B-y	2d	1dd
2r	1A	1e	.
2A	.	.	2cc#i
=63	=63	=63	=63
2F	2r	1d	1dd
2G	2d	.	.
2A	2c	1r	2r
[2B-y	2d	.	2dd
=64	=64	=64	=64
4B-]	2.f	0r	2b-y
4G	.	.	.
2A	.	.	2cc
.	4e	.	.
2F	4d	.	1dd
.	4c	.	.
[2G	4B-y	.	.
.	4A	.	.
=65	=65	=65	=65
4G]	2B-y	2r	0r
4D	.	.	.
2F	1A	2d	.
1E	.	2B-y	.
.	2G	2c	.
=66	=66	=66	=66
1D	1A	4d	1dd
.	.	4e	.
.	.	4f	.
.	.	4g	.
1r	2r	[1a	2cc
.	2d	.	2dd
=67	=67	=67	=67
2r	2c	1a]	2ee
2D	2d	.	1ff
4D	1f	[1a	.
4E	.	.	.
4F	.	.	4ee
4G	.	.	4dd
=68	=68	=68	=68
2A	2e	2a]	2cc
2B-y	2d	2g	1dd
1A	1e	1a	.
.	.	.	2cc#i
=69	=69	=69	=69
0D	0d	2r	[0dd
.	.	2A	.
.	.	2A	.
.	.	2A	.
=70	=70	=70	=70
2r	2r	1B-y	0dd]
2G	2d	.	.
2G	2d	1A	.
2F	2d	.	.
=71	=71	=71	=71
4E	2c	4G	0r
4D	.	4A	.
1G	2B-y	4B-y	.
.	.	4c	.
.	2A	4d	.
.	.	4e	.
2F	[2d	2f	.
=72	=72	=72	=72
1G	4d]	2B-y	2r
.	4c	.	.
.	4B-y	2.d	2dd
.	4A	.	.
1r	2.B-y	.	2dd
.	.	4e	.
.	.	4f	2dd
.	4A	4g	.
=73	=73	=73	=73
0r	2F	2a	2cc
.	2G	1g	2b-y
.	1d	.	2a
.	.	2f	[2dd
=74	=74	=74	=74
2r	2r	2g	4dd]
.	.	.	4cc
2G	2d	4G	4b-y
.	.	4A	4a
2G	2d	4B-y	4g
.	.	4c	4f
2F	2d	2d	[2a
=75	=75	=75	=75
2E	4G	2e	4a]
.	4A	.	4g
2G	4B-y	2.d	1g
.	4c	.	.
1D	2A	.	.
.	.	4c	.
.	2A	2A	2f#i
=76	=76	=76	=76
2r	0G	1B-y	0g
2G	.	.	.
2.B-y	.	2r	.
.	.	2d	.
4B-y	.	.	.
=77	=77	=77	=77
2B-y	1r	2.f	0r
2B-y	.	.	.
.	.	4f	.
2A	2r	2f	.
[2D	2d	2f	.
=78	=78	=78	=78
4D]	2.f	2d	0r
4E	.	.	.
4F	.	4c	.
4G	4f	4B-y	.
2A	2f	2c	.
2B-y	2f	2d	.
=79	=79	=79	=79
2.G	2e	1B-y	2r
.	1d	.	2dd
4F	.	.	.
4D	.	1r	2.ff
4E	.	.	.
[2F	4c	.	.
.	4B-y	.	4ff
=80	=80	=80	=80
4F]	4A	0r	2ff
4E	4G	.	.
2D	4A	.	2ff
.	4B-y	.	.
2C	2c	.	2ee
4G	2d	.	[2dd
4A	.	.	.
=81	=81	=81	=81
4B-y	4G	1r	4dd]
4c	4A	.	4cc
2.d	4B-y	.	2b-y
.	4c	.	.
.	4d	2r	1a
4c	4e	.	.
4d	[2f	2d	.
8cL	.	.	.
8B-yJ	.	.	.
=82	=82	=82	=82
2A	4f]	2.f	2r
.	4e	.	.
1B-y	2d	.	2dd
.	.	4f	.
.	1c	2f	2.ff
2A	.	2f	.
.	.	.	4ff
=83	=83	=83	=83
1B-y	1B-y	2d	2ff
.	.	4c	2ff
.	.	4B-y	.
1r	1r	2c	2ee
.	.	[2f	[2dd
=84	=84	=84	=84
0r	0r	4f]	4dd]
.	.	4e	4cc
.	.	2d	1b-y
.	.	1c	.
.	.	.	2a
=85	=85	=85	=85
1r	1r	1B-y	1b-y
1G	1d	1g	1b-y
=86	=86	=86	=86
2G	2d	2g	2b-y
1B-y	1d	1f	1b-y
2B-y	2d	2f	2b-y
=87	=87	=87	=87
2F	2c	2f	2a
2G	2B-y	1d	2g
[1D	2A	.	2f
.	[2f	4c	[2a
.	.	4B-y	.
=88	=88	=88	=88
1D]	2f]	0A	4a]
.	.	.	4g
.	4e	.	2f
.	4d	.	.
2r	2c	.	1e
2A	4d	.	.
.	4c	.	.
=89	=89	=89	=89
2B-y	1d	2r	1d
2G	.	2d	.
2A	2r	2.f	1r
[2B-y	2d	.	.
.	.	4e	.
=90	=90	=90	=90
4B-]	1f	2d	1r
4A	.	.	.
2F	.	2c	.
2.G	2e	2.B-y	2r
.	[2d	.	2dd
8FL	.	8AL	.
8EJ	.	8GJ	.
=91	=91	=91	=91
1D	4d]	4F	1.ff
.	4c	4E	.
.	4B-y	2F	.
.	4A	.	.
2r	2B-y	2G	.
2A	2c	2A	2ee
=92	=92	=92	=92
2B-y	1d	2r	2.dd
2G	.	2d	.
.	.	.	8ccL
.	.	.	8b-yJ
2A	2r	2.f	2cc
[2B-y	2d	.	[2dd
.	.	4e	.
=93	=93	=93	=93
4B-]	2.f	2d	4dd]
4A	.	.	4cc
2F	.	2c	2a
.	4e	.	.
2G	4d	2B-y	2b-y
.	4c	.	.
4F	[2d	[2f	[2a
4E	.	.	.
=94	=94	=94	=94
2D	2d]	4f]	4a]
.	.	4e	4g
2.F	4c	2f	4f
.	4B-y	.	4e
.	2A	2.c	2f
4E	.	.	.
4C	[2c	.	[2e
4D	.	4B-y	.
=95	=95	=95	=95
1E	4c]	4G	4e]
.	4B-y	4A	4d
.	4G	4B-y	1g
.	4A	4c	.
1D	4B-y	4d	.
.	4A	4e	.
.	2d	4f	2f
.	.	4d	.
=96	=96	=96	=96
1r	2c	2e	4g
.	.	.	4f
.	2B-y	1d	4e
.	.	.	4d
2r	1A	.	1e
2A	.	2c#i	.
=97	=97	=97	=97
2B-y	1r	2d	1d
2G	.	2d	.
2A	2r	2.f	1r
[2B-y	2d	.	.
.	.	4e	.
=98	=98	=98	=98
4B-]	1f	2d	1r
4A	.	.	.
2F	.	2c	.
2.G	2e	2.B-y	2r
.	[2d	.	2dd
8FL	.	8AL	.
8EJ	.	8GJ	.
=99	=99	=99	=99
1D	4d]	4F	1.ff
.	4c	4E	.
.	4B-y	2F	.
.	4A	.	.
2r	2B-y	2G	.
2A	2c	2A	2ee
=100	=100	=100	=100
2B-y	1d	2r	2.dd
2G	.	2d	.
.	.	.	8ccL
.	.	.	8b-yJ
2A	2r	2.f	2cc
[2B-y	2d	.	[2dd
.	.	4e	.
=101	=101	=101	=101
4B-]	2.f	2d	4dd]
4A	.	.	4cc
2F	.	2c	2a
.	4e	.	.
2.G	4d	2B-y	2b-y
.	4c	.	.
.	[2d	[2f	[2a
8FL	.	.	.
8EJ	.	.	.
=102	=102	=102	=102
2D	2d]	4f]	4a]
.	.	4e	4g
2.F	4c	2f	4f
.	4B-y	.	4e
.	2A	2.c	2f
4E	.	.	.
4C	[2c	.	[2e
4D	.	4B-y	.
=103	=103	=103	=103
1E	4c]	4G	4e]
.	4B-y	4A	4d
.	2G	4B-y	1g
.	.	4c	.
1D	1A	1d	.
.	.	.	2f#i
=104	=104	=104	=104
0Gl	0Gl	0dl	0gl
==	==	==	==
*-	*-	*-	*-
!!!system-decoration: s1,s2,s3,s4
!!!RDF**kern: i = editorial accidental
!!!RDF**kern: l = terminal long
!!!ENC: Janosch Umbreit
!!!END: 2026/01/30
!!!EED: Benjamin Ory
!!!EEV: 2026/02/03
!!!YEC: Copyright 2026 Benjamin Ory, All Rights Reserved
!!!ONB: Translated from MusicXML on 2026/02/03
